!!!!SEGMENT: pl-kk--kk-i-6--026-002_palestrina-giovanni-pierluigi-da--missa-marcelli-papae-et-in-terra.krn
!!!cenid: 16xx:990
!!!COM: Palestrina, Giovanni Pierluigi da
!!!COM-rism: pe1904
!!!CDT: ~1525-1594/02/02
!!!CNT: Italian
!!!OTL: Missa Marcelli Papae – Et in terra
!!!PDT:
!!!AGN: Sacred; Mass
!!!SMS-siglum: PL-Kk
!!!SMS-shelfmark: Kk.I.6
!!!NIFC-rismID: 1001136041
!!!URL-scan: http://repozytorium.nifc.pl/skany/pl-kk-nut--i-6
!!!ONB-nifc: UWAGA: C (skan 0028-0032, s. 52-61), T (skan 0131-0136, s. 66-76), B (skan 0241-0246, s. 65-74) Części Mszy: 1. Kyrie, 2. Et in terra, 3. Patrem, 4. Sanctus, 5. Agnus Dei
!!!SMS-variant:
!!!SMS-altvar:
**kern	**text	**kern	**text	**kern	**text
*part3	*part3	*part2	*part2	*part1	*part1
*staff3	*staff3	*staff2	*staff2	*staff1	*staff1
*I"Baſsus.	*	*I"Tenor.	*	*I"Cantus.	*
*I'B	*	*I'T	*	*I'S	*
*clefF4	*	*clefC3	*	*clefC4	*
*k[b-]	*	*k[b-]	*	*k[b-]	*
*M2/1	*	*M2/1	*	*M2/1	*
*met(c|)	*	*met(c|)	*	*met(c|)	*
=1	=1	=1	=1	=1	=1
!	!	!	!	!LO:TX:t=P:problem:4/middle or right:global	!
!LO:TX:t=P:problem:4\/middle:global	!	!	!	!LO:TX:t=P:problem:2\, 4\middle:global	!
!LO:TX:t=P:problem:2\middle:global	!	!LO:TX:t=P:problem:2\, 4\/, 8\middle:global	!	!LO:TX:t=P:problem:delikatnie zaznaczone kreski pseudotaktowe	!
1.C/	ET	1.c\	ET	1.G/	ET
!	!	!	!	!LO:TX:t=P:problem:kreska pseudotaktowa	!
2C/	in	2c/	in	2G/	in
=2-	=2-	=2-	=2-	=2-	=2-
1F\	ter-	1c\	ter-	1A\	ter-
!	!	!	!	!LO:TX:t=P:problem:kreska pseudotaktowa	!
1D\	-ra	1d\	-ra	1A\	-ra
=3-	=3-	=3-	=3-	=3-	=3-
!	!	!	!	!LO:TX:t=P:problem:# below	!
!	!	!	!	!LO:N:acc=#	!
2.G\	pax	2d\	pax	2Bn\	pax
.	.	1G/	ho-	2B\	ho-
4F\	.	.	.	.	.
!	!	!	!	!LO:TX:t=P:problem:kreska pseudotaktowa	!
2E\	ho-	.	.	1c\	-mi-
2F\	.	1c\	-mi-	.	.
=4-	=4-	=4-	=4-	=4-	=4-
!	!	!	!	!LO:TX:t=P:problem:kreska pseudotaktowa	!
2.D/	mi-	.	.	(1F/	-ni-
.	.	2B-/	-ni-	.	.
4D/	-ni-	.	.	.	.
2C/	-bus	2c/	-bus	2G,</)	-bus
1C/	Bo-	1e\	Bo-	1c\	bo-
=5-	=5-	=5-	=5-	=5-	=5-
!LO:SIC:v:custos F	!	!	!	!LO:TX:t=P:problem:kreska pseudotaktowa	!
2C/	-nae	2e\	-nae	2c\	-nae
!LO:LB:g=original	!	!	!	!	!
2F\	vo-	2f\	Vo-	2c\	Vo-
!	!	!LO:SIC:v:custos d	!	!LO:SIC:v:custos B-	!
2D/	-lun-	2f\	-lun-	2d,<\	-lun-
=6-	=6-	=6-	=6-	=6-	=6-
!	!	!LO:LB:g=original	!	!LO:LB:g=original	!
1G\	-ta-	(2d\	-ta-	1B-y\	-ta-
.	.	2e\)	.	.	.
!LO:TX:t=P:problem:cezura na 2. linii	!	!LO:TX:t=P:problem:cezura na 3. linii	!	!LO:TX:t=P:problem:kreska pseudotaktowa	!
1F\,<	-tis	1f\,<	-tis	1c\,<	-tis
=7-	=7-	=7-	=7-	=7-	=7-
1C/	Lau-	1e\	Lau-	1c\	Lau-
1F\	-da-	1f\	-da-	1c\	-da-
=8-	=8-	=8-	=8-	=8-	=8-
!	!	!	!	!LO:N:acc=#	!
!	!	!	!	!LO:TX:t=P:problem:# below	!
1G\	-mus	1d\	-mus	1Bn\	-mus
2C/	te	2e\	te	2c,<\	te
1C/	Be-	1e\	Be-	1c\	Be-
=9-	=9-	=9-	=9-	=9-	=9-
!	!	!	!	!LO:TX:t=P:problem:kreska pseudotaktowa	!
2C/	-ne-	2e\	-ne-	2c\	-ne-
2.F\	-di-	2.f\	-di-	2c\	-di-
.	.	.	.	2A/	-ci-
4F\	-ci-	4f\	-ci-	.	.
=10-	=10-	=10-	=10-	=10-	=10-
!	!	!	!	!LO:TX:t=P:problem:# above	!
!	!	!	!	!LO:N:acc=#	!
1G\	-mus	1d\	-mus	4Bn\	-mus
.	.	.	.	2c\	.
!	!	!	!	!LO:TX:t=P:problem:kreska pseudotaktowa	!
!	!	!	!	!LO:TX:t=P:problem:# above	!
!	!	!	!	!LO:N:acc=#	!
.	.	.	.	4Bn\	.
2C/	te	2e\	te	2c,<\	te
1C/	Ad-	1c\	Ad-	1G/	Ad-
=11-	=11-	=11-	=11-	=11-	=11-
!	!	!	!	!LO:TX:t=P:problem:kreska pseudotaktowa	!
2C/	-o-	2c/	-o-	2E/	-o-
!	!	!	!	!LO:SIC:v:custos D	!
1D\	-ra-	1A/	-ra-	1F/	-ra-
=12-	=12-	=12-	=12-	=12-	=12-
!LO:SIC:v:custos FF	!	!LO:SIC:v:custos A	!	!LO:LB:g=original	!
1BB-/	-mus	1B-/	-mus	1D/	-mus
!LO:LB:g=original	!	!	!	!	!
!LO:TX:a:t=+	!	!LO:LB:g=original	!	!	!
1.FF/	te	2A/	te	1F/	te
.	.	2f\	Glo-	.	.
=13-	=13-	=13-	=13-	=13-	=13-
.	.	2f\	-ri-	2r	.
!	!	!	!	!LO:TX:t=P:problem:kreska pseudotaktowa	!
2F\	Glo-	2f\	-fi-	2c\	Glo-
2F\	-ri-	2.f\	-ca-	2c\	-ri-
2F\	-fi-	.	.	2c\	-fi-
.	.	4e\	.	.	.
=14-	=14-	=14-	=14-	=14-	=14-
1G\	-ca-	4d\	.	2.B-y\	-ca-
.	.	4c/	.	.	.
.	.	1d\	.	.	.
.	.	.	.	4A/	.
1E-X\	-mus	.	.	1G/	-mus
.	.	2c/	-mus	.	.
=15-	=15-	=15-	=15-	=15-	=15-
!	!	!	!	!LO:TX:t=P:problem:kreska pseudotaktowa	!
1D\	te	1d\	te	1A\	te
!	!	!	!	!LO:N:acc=#	!
!	!	!	!	!LO:TX:t=P:problem:# below	!
1.GG/	Gra-	2r	.	1.Bn\	Gra-
.	.	1d\	Gra-	.	.
=16-	=16-	=16-	=16-	=16-	=16-
2GG/	-ti-	2d\	-ti-	2Bny\	-ti-
1GG/	-as	1d\	-as	1B\	-as
=17-	=17-	=17-	=17-	=17-	=17-
1.D\	a-	1.f\	a-	2r	.
.	.	.	.	1d\	a-
2D/	-gi-	2f\	-gi-	2d\	-gi-
=18-	=18-	=18-	=18-	=18-	=18-
!	!	!LO:SIC:v:custos d	!	!	!
1D\	-mus	1f\	-mus	1d\	-mus
!	!	!LO:PB:g=original	!	!LO:SIC:v:custos B	!
2.GG/	ti-	0d\	ti-	0B-y\	ti-
4AA/	.	.	.	.	.
=19-	=19-	=19-	=19-	=19-	=19-
1BB-/	.	.	.	.	.
!	!	!	!	!LO:LB:g=original	!
2FF/	-bi	1f\	-bi	0c\	-bi
1F\	prop-	.	.	.	.
=20-	=20-	=20-	=20-	=20-	=20-
.	.	2r	.	.	.
!LO:SIC:v:custos F	!	!	!	!	!
2Eny\	-ter	1c\	prop-	.	.
1F\	mag-	.	.	2r	.
.	.	2c/	-ter	1A\	prop-
=21-	=21-	=21-	=21-	=21-	=21-
2D/	-nam	1d\	mag-	.	.
!	!	!	!	!LO:TX:t=P:problem:kreska pseudotaktowa	!
2.G\	glo-	.	.	2B-\	-ter
.	.	1d\	-nam	2G/	mag-
4F\	-ri-	.	.	.	.
2D/	.	.	.	2A/	-nam
=22-	=22-	=22-	=22-	=22-	=22-
2E\	.	1c\	glo-	2r	.
1F\	.	.	.	2.A/	glo-
.	.	2c/	-ri-	.	.
.	.	.	.	4A/	-ri-
!	!	!	!	!LO:TX:t=P:problem:kreska pseudotaktowa	!
2BB-/	-am	2d\	-am	2B-\	-am
=23-	=23-	=23-	=23-	=23-	=23-
1C/	tu-	1c\	tu-	1G/	tu-
2FF/	-am	0c\	-am	2F/	-am
2.F\	Do-	.	.	2.A/	Do-
=24-	=24-	=24-	=24-	=24-	=24-
4F\	-mi-	.	.	4A/	-mi-
!	!	!	!	!LO:TX:t=P:problem:kreska pseudotaktowa	!
2E\	-ne	.	.	2G/	-ne
1F\	De-	2r	.	1A\	De-
.	.	2c/	Do-	.	.
=25-	=25-	=25-	=25-	=25-	=25-
2BB-/	-us	2d\	-mi-	2F/	-us
2GG/	Rex	2d\	-ne	2.B-\	Rex
2.G\	Cae-	2d\	De-	.	.
.	.	.	.	4A/	.
!	!	!LO:SIC:v:custos c	!	!	!
.	.	2B-/	-us	1G/	Cae-
!LO:SIC:v:custos E	!	!	!	!	!
4F\	.	.	.	.	.
=26-	=26-	=26-	=26-	=26-	=26-
!LO:LB:g=original	!	!LO:LB:g=original	!	!	!
2E\	-le-	2c/	Rex	.	.
!	!	!	!	!LO:TX:t=P:problem:kreska pseudotaktowa	!
!	!	!	!	!LO:SIC:v:custos F	!
2F\	-ſtis	2.c/	Cae-	2A/	.
!	!	!	!	!LO:TX:t=P:problem:kreska pseudotaktowa	!
!	!	!	!	!LO:LB:g=original	!
1D\	De-	.	.	1F/	-les-
.	.	8B-/L	.	.	.
.	.	8A/J	.	.	.
.	.	2B-/	-le-	.	.
=27-	=27-	=27-	=27-	=27-	=27-
2C/	-us	1c\	-ſtis	2G,</	-tis
1C/	Pa-	.	.	1G/	De-
.	.	00r	.	.	.
!	!	!	!	!LO:TX:t=P:problem:kreska pseudotaktowa	!
2BB-/	ter	.	.	2G/	-us
=28-	=28-	=28-	=28-	=28-	=28-
1C/	O-	.	.	1G/	Pa-
!	!	!	!	!LO:TX:t=P:problem:kreska pseudotaktowa	!
2AA/	-mni-	.	.	1A\	-ter
2.D/	-po-	.	.	.	.
=29-	=29-	=29-	=29-	=29-	=29-
.	.	.	.	1A\	O-
4C/	.	.	.	.	.
2AA/	.	.	.	.	.
2BB-/	.	1rc	.	2.G/	-mni-
2C/	.	.	.	.	.
!	!	!	!	!LO:TX:t=P:problem:kreska pseudotaktowa	!
.	.	.	.	4G/	-po-
=30-	=30-	=30-	=30-	=30-	=30-
2FF/	-tens	2r	.	2F,</	-tens
1F\	Do-	1c\	Do-	1A\	Do-
!	!	!	!	!LO:TX:t=P:problem:kreska pseudotaktowa	!
2F\	-mi-	2c/	-mi-	2A/	-mi-
=31-	=31-	=31-	=31-	=31-	=31-
2D/	-ne	2d\	-ne	2A/	-ne
2.BB-/	fi-	1d\	fi-	1B-\	fi-
4C/	.	.	.	.	.
4D/	.	2d\	-li	4A/	.
!LO:SIC:v:custos F	!	!	!	!LO:TX:t=P:problem:kreska pseudotaktowa	!
4E\	.	.	.	4G/	.
=32-	=32-	=32-	=32-	=32-	=32-
!LO:LB:g=original	!	!	!	!	!
2F\	-li	2c/	V-	2A,</	-li
1F\	V-	4F/	-ni-	1c\	V-
.	.	4G/	.	.	.
.	.	4A/	.	.	.
.	.	4B-/	.	.	.
!	!	!	!	!LO:SIC:v:custos c	!
2E\	-ni-	1c\	-ge-	2c\	-ni-
=33-	=33-	=33-	=33-	=33-	=33-
!	!	!	!	!LO:PB:g=original	!
2D/	-ge-	.	.	2.d\	-ge-
!	!	!LO:N:acc=#	!	!	!
!	!	!LO:TX:t=P:problem:# below	!	!	!
2D/	-ni-	2Bn/	-ni-	.	.
.	.	.	.	4d\	-ni-
!	!	!LO:SIC:v:custos d	!	!LO:TX:t=P:problem:kreska pseudotaktowa	!
1C/	-te	1c\	-te,	1G/	-te
=34-	=34-	=34-	=34-	=34-	=34-
!	!	!LO:LB:g=original	!	!	!
0GG/	Je-	0d\	Je-	0B-\	Je-
=35-	=35-	=35-	=35-	=35-	=35-
1D\	-ſu	1d\	-ſu	1A\,<	-ſu
0GG/	Chri-	0d\	Chri-	2.B-\	Chri-
!	!	!	!	!LO:TX:t=P:problem:kreska pseudotaktowa	!
.	.	.	.	4A/	.
=36-	=36-	=36-	=36-	=36-	=36-
.	.	.	.	4G/	.
.	.	.	.	4F/	.
.	.	.	.	2G/	.
!LO:TX:t=P:problem:wysokość poprawiana	!	!	!	!LO:TX:t=P:problem:kreska pseudotaktowa	!
2D/	-ſte	1d\	-ſte	1A\	.
2.D/	Do-	.	.	.	.
=37-	=37-	=37-	=37-	=37-	=37-
!	!	!	!	!LO:TX:t=P:problem:# below	!
.	.	2r	.	2F#X,</	-ſte
4D/	-mi-	.	.	.	.
2D/	-ne	2d\	Do-	2.A/	Do-
1F\	De-	2c/	-mi-	.	.
.	.	.	.	4A/	-mi-
!	!	!	!	!LO:TX:t=P:problem:kreska pseudotaktowa	!
.	.	2c/	-ne	2Fny/	-ne
=38-	=38-	=38-	=38-	=38-	=38-
2E\	-us	2c/	De-	2G/	De-
1D\	A-	2d\	-us	2A/	-us
!	!	!LO:TX:t=P:problem:słowa poprawiane	!	!	!
.	.	2d\	A-	2A/	A-
!LO:SIC:v:custos BB-	!	!	!	!LO:TX:t=P:problem:kreska pseudotaktowa	!
2C/	-gnus	2G/	-gnus	2E/	-gnus
=39-	=39-	=39-	=39-	=39-	=39-
!LO:LB:g=original	!	!	!	!LO:SIC:v:custos F	!
1BB-/	De-	1B-y/	De-	1F/	De-
!	!	!	!	!LO:LB:g=original	!
2FF/	-i	2A/	-i	2F/	-i
1F\	Fi-	1c\	Fi-	1A\	Fi-
=40-	=40-	=40-	=40-	=40-	=40-
!	!	!	!	!LO:TX:t=P:problem:kreska pseudotaktowa	!
2F\	-li-	2c/	-li-	2A/	-li-
!	!	!LO:SIC:v:custos d	!	!	!
1F\	-us	1c\	-us	2.A/	-us
.	.	.	.	4G/	.
=41-	=41-	=41-	=41-	=41-	=41-
*lig	*	*	*	*	*
!	!	!LO:LB:g=original	!	!	!
1D\	Pa-	1d\	Pa-	4F/	Pa-
.	.	.	.	4G/	.
.	.	.	.	4A/	.
.	.	.	.	4B-\	.
1C/	.	1G/	-tris	1c\	.
*Xlig	*	*	*	*	*
=42-	=42-	=42-	=42-	=42-	=42-
2FF/	-tris	2rA	.	2A,</	-tris
1C/	Fi-	1c\	Fi-	1G/	fi-
2C/	-li-	2c/	-li-	2G/	-li-
=43-	=43-	=43-	=43-	=43-	=43-
!	!	!	!	!LO:TX:t=P:problem:kreska pseudotaktowa	!
1C/	-us	1c\	-us	1G/	-us
1FF/	Pa-	1c\	Pa-	1A\	Pa-
=44-	=44-	=44-	=44-	=44-	=44-
!LO:TX:t=P:problem:fermata również u dołu	!	!LO:TX:t=P:problem:fermata również u dołu	!	!LO:TX:t=P:problem:fermata również u dołu	!
0C/;	-tris.	0c\;	-tris.	0G/;	-tris.
=45-	=45-	=45-	=45-	=45-	=45-
*M2/1	*	*M2/1	*	*M2/1	*
*met(c|)	*	*met(c|)	*	*met(c|)	*
!LO:LB:g=original	!	!LO:PB:g=original	!	!LO:LB:g=original	!
0C/	Qui	0c\	Qui	0G/	Qui
=46-	=46-	=46-	=46-	=46-	=46-
1C/	tol-	1c\	tol-	1G/	tol-
2GG/	-lis	2B-/	-lis	2G/	-lis
2G\	pec-	2G/	pec-	2B-\	pec-
=47-	=47-	=47-	=47-	=47-	=47-
2G\	-ca-	2d\	-ca-	2B-\	-ca-
!	!	!	!	!LO:TX:t=P:problem:kreska pseudotaktowa	!
2F\	-ta	2d\	-ta	2A/	-ta
2G\	mun-	2.B-/	mun-	4G/	mun-
.	.	.	.	4A/	.
2.GG/	.	.	.	4B-\	.
.	.	4A/	.	4c\	.
=48-	=48-	=48-	=48-	=48-	=48-
.	.	1G/	.	1d\	.
4AA/	.	.	.	.	.
4BB-/	.	.	.	.	.
4C/	.	.	.	.	.
2D/	-di	2F/	-di	2D/	-di
1D\	Mi-	1A/	Mi-	1F/	Mi-
=49-	=49-	=49-	=49-	=49-	=49-
!	!	!	!	!LO:TX:t=P:problem:kreska pseudotaktowa	!
2C/	-ſe-	2A/	-ſe-	2E/	-ſe-
2BB-/	-re-	2G/	-re-	2D/	-re-
2C/	-re	2G/	-re	2E/	-re
=50-	=50-	=50-	=50-	=50-	=50-
!LO:SIC:v:custos GG	!	!	!	!	!
1AA/	no-	1c\	no-	1C/	no-
!	!	!LO:SIC:v:custos c	!	!	!
!	!	!LO:N:acc=#	!	!	!
!LO:LB:g=original	!	!LO:TX:t=P:problem:# below	!	!	!
1GG/	-bis	1Bn/	-bis	1D/	-bis
=51-	=51-	=51-	=51-	=51-	=51-
!	!	!LO:LB:g=original	!	!LO:SIC:v:custos G	!
0C/	Qui	0c\	Qui	1rA	.
!	!	!	!	!LO:LB:g=original	!
.	.	.	.	1G/	Qui
=52-	=52-	=52-	=52-	=52-	=52-
1C/	tol-	1c\	tol-	1G/	tol-
!	!	!LO:TX:t=P:problem:cezura na 3. linii	!	!LO:TX:t=P:problem:kreska pseudotaktowa	!
1FF/	-lis	1c\,<	-lis	1A\	-lis
=53-	=53-	=53-	=53-	=53-	=53-
2FF/	pec-	2c/	pec-	2A/	pec-
1C/	-ca-	1c\	-ca-	1G/	-ca-
!	!	!	!	!LO:TX:t=P:problem:kreska pseudotaktowa	!
2FF/	-ta	2c/	-ta	2A/	-ta
=54-	=54-	=54-	=54-	=54-	=54-
1BB-/	mun-	1d\	mun-	1B-\	mun-
1FF/	-di	1c\	-di	1A\,<	-di
=55-	=55-	=55-	=55-	=55-	=55-
1.F\	Sus-	2r	.	1.c\	Sus-
.	.	1f\	Sus-	.	.
!	!	!	!	!LO:TX:t=P:problem:kreska pseudotaktowa	!
2F\	-ci-	2f\	-ci-	2c\	-ci-
=56-	=56-	=56-	=56-	=56-	=56-
2F\	-pe	2f\	-pe	2A/	-pe
1C/	de-	1e\	de-	2.c\	de-
.	.	.	.	4c\	-pre-
!	!	!	!	!LO:TX:t=P:problem:kreska pseudotaktowa	!
2C/	-pre-	2e\	-pre-	2c\	-ca-
=57-	=57-	=57-	=57-	=57-	=57-
2.F\	-ca-	2f\	-ca-	2c\	-ti-
.	.	2c/	-ti-	2.A/	-o-
4E\	-ti-	.	.	.	.
2D/	-o-	2d\	-o-	.	.
.	.	.	.	4F/	-nem
!LO:SIC:v:custos F	!	!	!	!	!
2C/	-nem	2e\	-nem	1c\	No-
=58-	=58-	=58-	=58-	=58-	=58-
*lig	*	*	*	*	*
!LO:LB:g=original	!	!LO:SIC:v:custos d	!	!	!
1F\	No-	1f\	No-	.	.
!	!	!	!	!LO:TX:t=P:problem:# below	!
!	!	!	!	!LO:N:acc=#	!
.	.	.	.	4Bn\	.
!	!	!	!	!LO:TX:t=P:problem:kreska pseudotaktowa	!
!	!	!	!	!LO:SIC:v:custos Bn	!
.	.	.	.	4A/	.
!	!	!	!	!LO:N:acc=#	!
!	!	!	!	!LO:TX:t=P:problem:# below	!
!	!	!LO:PB:g=original	!	!LO:LB:g=original	!
1G\	.	1d\	.	4Bn\	.
.	.	.	.	2c\	.
!	!	!	!	!LO:TX:t=P:problem:kreska pseudotaktowa	!
!	!	!	!	!LO:N:acc=#	!
!	!	!	!	!LO:TX:t=P:problem:# below	!
.	.	.	.	4Bn\	.
*Xlig	*	*	*	*	*
=59-	=59-	=59-	=59-	=59-	=59-
!LO:TX:t=P:problem:cezura na 1. linii	!	!	!	!	!
2C,</	ſtra(m)	1e\	-ſtram	2c,<\	-ſtram
!	!	!	!	!LO:TX:t=P:problem:kreska pseudotaktowa	!
2C/	Qui	.	.	2c\	Qui
1F\	ſe-	00r	.	1c\	ſe-
=60-	=60-	=60-	=60-	=60-	=60-
2E\	-des	.	.	1.c\	-des
2.F\	ad	.	.	.	.
4E\	.	.	.	.	.
!	!	!	!	!LO:TX:t=P:problem:kreska pseudotaktowa	!
2C/	.	.	.	2c\	ad
=61-	=61-	=61-	=61-	=61-	=61-
2D/	dex-	.	.	2B-y\	dex-
2E\	-te-	.	.	2G/	-te-
1F\	-ram	0rB	.	1A\	-ram
=62-	=62-	=62-	=62-	=62-	=62-
1BB-/	Pa-	.	.	1B-\	Pa-
2FF/	-tris	2r	.	2A,</	-tris
!	!	!	!	!LO:TX:t=P:problem:kreska pseudotaktowa	!
2F\	Mi-	2c/	Mi-	2A/	Mi-
=63-	=63-	=63-	=63-	=63-	=63-
2E\	-ſe-	2c/	-ſe-	2G/	-ſe-
2.F\	-re-	1c\	-re-	2.A/	-re-
4E\	.	.	.	4G/	-re
!	!	!	!	!LO:TX:t=P:problem:kreska pseudotaktowa	!
!LO:SIC:v:custos D	!	!	!	!LO:SIC:v:custos F	!
2C/	re	2c/	-re	2E/	no-
=64-	=64-	=64-	=64-	=64-	=64-
*	*	*lig	*	*	*
!LO:PB:g=original	!	!	!	!LO:LB:g=original	!
2D/	no-	1B-y/	No-	2F/	.
!	!	!	!	!LO:TX:t=P:problem:kreska pseudotaktowa:między nutą a kropką	!
2E\	.	.	.	2.G/	.
*lig	*	*	*	*	*
1F\	.	1A/	.	.	.
.	.	.	.	4F/	.
.	.	.	.	1F/	.
*	*	*Xlig	*	*	*
=65-	=65-	=65-	=65-	=65-	=65-
1C/	.	1G/	.	.	.
.	.	.	.	2E/	.
!	!	!	!	!LO:TX:t=P:problem:kreska pseudotaktowa	!
*Xlig	*	*	*	*	*
!	!	!LO:TX:t=P:problem:cezura pod 1. linią	!	!	!
2FF/	-bis	2A,</	-bis	2F,</	-bis
1F\	Quo-	1c\	Quo-	1A\	Quo-
=66-	=66-	=66-	=66-	=66-	=66-
!	!	!	!	!LO:TX:t=P:problem:kreska pseudotaktowa	!
2E\	-ni-	2c/	-ni-	2G/	-ni-
2F\	-am	2c/	-am	2A,</	-am
!	!	!	!	!LO:TX:t=P:problem:kreska pseudotaktowa	!
2C/	tu	2c/	tu	2G/	tu
=67-	=67-	=67-	=67-	=67-	=67-
2D/	So-	4B-/	So-	2F/	So-
.	.	4A/	.	.	.
!	!	!LO:TX:t=P:problem:wysokość poprawiana	!	!	!
2AA/	-lus	1A/	-lus	2E/	-lus
1BB-/	San-	.	.	1D/	San-
!	!	!LO:TX:t=P:problem:wysokość poprawiana	!	!	!
!	!	!LO:SIC:v:custos A	!	!	!
.	.	2G/	San-	.	.
=68-	=68-	=68-	=68-	=68-	=68-
!	!	!LO:LB:g=original	!	!	!
2AA/	-ctus	2A/	-ctus	2E/	-ctus
1AA/	Tu	1A/	.	1E/	Tu
1D\	So-	1A/	Tu	1F/	So-
=69-	=69-	=69-	=69-	=69-	=69-
!	!	!	!	!LO:TX:t=P:problem:kreska pseudotaktowa	!
2C/	-lus	2A/	So-	2E/	-lus
2.D/	Do-	4B-/	-lus	2.F/	Do-
.	.	4A/	.	.	.
.	.	1A/	Do-	.	.
!	!	!	!	!LO:SIC:v:custos D	!
4C/	.	.	.	4E/	.
=70-	=70-	=70-	=70-	=70-	=70-
!	!	!	!	!LO:PB:g=original	!
2BB-/	.	.	.	2D/	.
2BB-/	.	2G/	-mi-	2D/	-mi-
!LO:SIC:v:custos D	!	!	!	!LO:TX:t=P:problem:kreska pseudotaktowa	!
1AA/	-mi-	1A/	-nus	1E/	-nus
=71-	=71-	=71-	=71-	=71-	=71-
!LO:LB:g=original	!	!	!	!	!
1D\	-nus	2r	.	2rD	.
.	.	2d\	Tu	1D/	Tu
00r	.	1d\	So-	.	.
.	.	.	.	1G/	So-
=72-	=72-	=72-	=72-	=72-	=72-
.	.	1.d\	-lus	.	.
!	!	!	!	!LO:TX:t=P:problem:kreska pseudotaktowa	!
.	.	.	.	2F/	-lus
.	.	.	.	2.G/	al-
.	.	2d\	al-	.	.
.	.	.	.	4F/	.
=73-	=73-	=73-	=73-	=73-	=73-
.	.	4e\	-tiſ-	2E/	.
.	.	4d\	.	.	.
.	.	1c\	.	2F/	.
0rC	.	.	.	2D/	-tiſ-
.	.	2B-/	-si-	2D/	-si-
=74-	=74-	=74-	=74-	=74-	=74-
.	.	1c\	-mus	0C/	-mus
!	!	!LO:SIC:v:custos f	!	!	!
0C/	Je-	0e\	Je-	.	.
=75-	=75-	=75-	=75-	=75-	=75-
.	.	.	.	0c\	Je-
!	!	!LO:LB:g=original	!	!	!
1FF/	-ſu	1f\	-ſu	.	.
=76-	=76-	=76-	=76-	=76-	=76-
!	!	!	!	!LO:N:acc=#	!
!	!	!	!	!LO:TX:t=P:problem:# below	!
0GG/	Chri-	0d\	Chri-	2Bn\	-ſu
.	.	.	.	1c\	Chri-
!	!	!	!	!LO:TX:t=P:problem:kreska pseudotaktowa	!
!	!	!	!	!LO:N:acc=#	!
!	!	!	!	!LO:TX:t=P:problem:# below	!
.	.	.	.	2Bn\	.
=77-	=77-	=77-	=77-	=77-	=77-
2C/	-ſte	2e\	-ſte	2c\	-ſte
!	!	!	!	!LO:SIC:v:custos A	!
2C/	cum	2c/	Cum	2G/	Cum
!	!	!	!	!LO:LB:g=original	!
2F\	San-	2c/	San-	2A/	San-
2E\	-cto	2c/	-cto	2G/	-cto
=78-	=78-	=78-	=78-	=78-	=78-
2.D/	Spi-	2.f\	Spi-	2.F/	Spi-
!	!	!	!	!LO:TX:t=P:problem:kreska pseudotaktowa	!
4D/	-ri-	4f\	-ri-	4F/	-ri-
2C/	-tu	2e\	-tu	1G/	-tu
2C/	in	2e\	in	.	.
=79-	=79-	=79-	=79-	=79-	=79-
2D/	glo-	2d\	glo-	1rA	.
2E\	-ri-	2c/	-ri-	.	.
2F\	-a	2c/	-a	2rF	.
!LO:SIC:v:custos D	!	!	!	!	!
2F\	in	2c/	in	2A/	in
=80-	=80-	=80-	=80-	=80-	=80-
!LO:LB:g=original	!	!	!	!	!
2D/	glo-	2d\	glo-	2F/	glo-
!	!	!	!	!LO:TX:t=P:problem:kreska pseudotaktowa	!
2C/	-ri-	2e\	-ri-	2G/	-ri-
2F\	-a	2f\	-a	2A/	-a
1F\	De-	1f\	De-	1c\	De-
=81-	=81-	=81-	=81-	=81-	=81-
!	!	!LO:SIC:v:custos d	!	!LO:TX:t=P:problem:kreska pseudotaktowa	!
2C/	-i	2e\	-i	2c\	-i
!	!	!LO:LB:g=original	!	!	!
2D/	Pa-	1d\	Pa-	2A/	Pa-
2BB-/	-tris	.	.	2B-y\	-tris
=82-	=82-	=82-	=82-	=82-	=82-
*	*	*	*	*lig	*
1C/	A-	0c\	-tris	1G/	A-
1FF/	-men	.	.	1A\	.
*	*	*	*	*Xlig	*
=83-	=83-	=83-	=83-	=83-	=83-
0BB-/	A-	0d\	A-	0B-\	.
=84-	=84-	=84-	=84-	=84-	=84-
!LO:TX:t=P:problem:fermata również u dołu	!	!LO:TX:t=P:problem:fermata również u dołu	!	!LO:TX:t=P:problem:fermata również u dołu	!
0FF/;	-men.	0c\;	-men.	0A\;	-men.
==	==	==	==	==	==
*-	*-	*-	*-	*-	*-
!!!RDF**kern: > = above
!!!RDF**kern: < = below
!!!system-decoration: [(s1,s2,s3)]
!!!EED: Andrzej Borzym
!!!EST: 2021-03-22
!!!ENC:Kamil Watkowski
!!!END:2021-03-08
